X:10
T:Jitterbug Waltz
C:Fats Waller
S:MandoZine TablEdit Archives
Z:TablEdited by Mike Stangeland for MandoZine
L:1/8
Q:310
M:3/4
K:D
|: "Dmaj7"zd fc eB | dA cG BF | AE GD FC | EB, DA, CA, | "G9"B,6 | z2 z/z3/2 (3B,D=F |
 A4 zB | =F6 | "Dmaj7"=zd fc eB | dA cG BF | AE GD FC | EB, DA, CA, | "B7sus4"B,6 |
 z4 (3B,^DF | "B7"A4 AB | F6 | "E7"zB, DB, DB, | DB, DB, DB, | F2 F2 z2 | z6 | "Gm"z^A, D^A, D^A, |
 D^A, D^A, D^A, | "C7(#11)"F6 | z6 | "E7"zB, DB, DB, | DB, DB, DB, |1 C2 D2 ^D2 | E2 z2 C2 |
 "F#m7"A,6 | "Fmaj7"z4 =c^A | "Em11"=c^A =FG =A2 | "Bbmaj7(#11)"A6 :|2 B6 | F6 | "Dmaj7"D6 |
 "Gm7"G,A, ^A,=C DE | "Dmaj7"F2 FA F2 | "A7"A,6 | "Dmaj7"F6 |
